X:1
T:Treble Mr Condiff.2voices. HA.049
T:Treble Mr Condiff.2voices. HA.049
T:in Hand B Henry Atkinson's original MS,Hartburn,N'umberland,1694.
C:in Hand B
C:Henry Atkinson's original MS,Hartburn,N'umberland,1694.
%%score 1 2
L:1/8
Q:3/4=60
M:3/4
K:F
V:1 treble 
V:2 treble 
V:1
|: f2 e2 d2 | a2"^#" c2 d2 | e2 f2 d2 | edef e2 | f2 e2 d2 | a2"^#" c2 d2 | %6
"^illegible inserted notes in MS" z2 z2 z2 | z2 z2 z2 :: a2 g2 a2 | b2 a2 g2 | fefgfg | agabab | %12
 a2 g2 a2 | b2 a2 g2 | a>b g3 a | a6 :| %16
V:2
|: d2 e2 f2 | e2 e2 f2 | g2 a2 f2 | gagf e2 | d2 e2 f2 | e2 e2 f2 | e2"^#" c4 | d6 :: f2 e2 f2 | %9
 g2 f2 g2 | agabag | fefgfg | f2 e2 f2 | g2 f2 e2 | f>g e3 f | f6 :| %16

